X:9
T:Trip to Skye
R:waltz
C:John Whelan
D:Skolvan
D:John Whelan & Eileen Ivers
Z:id:hn-waltz-9
M:3/4
L:1/8
K:D
f2 ed cB | ce AB ce | d2 ce dc | d2 B2 B2 |
f2 ed cB | ce AB ce | d2 ce dc | BA FE FA :|
|: F2 Bc d2 | F2 Bc d2 | ce AB ce | dc BA FE |
F2 Bc d2 | F2 Bc d2 | ce AB ce | d2 B2 B2 :|

